X: 161993
T: Porcupine's Fancy 
C: BB
L: 1/8
M: 4/4
R: reel
Q: 1/8=350
K: G
A|"G"BcBA "Em"GFGE|"G"DEGB "D"(3AcA FA|"G"Bdgd "Em"efge|"D"dcBA "Em"BE (3EDE|
"G"GBAF GABc | dgfg "Am"ea (3a^ga | "G"bg "D"af "Em"ed "D"BA |"G"GB"D"AF "G"G3 :|
A|"G"BGBd "Am"cBAe|"G"dBdg "Am"ea (3a^ga|"G"gdBd "Am"ecAc|"D7"(3Bcd cA "Em7"GFED |
"G"GB (3BAB "Am"ABce | "G"dBdg "Am"ea (3a^ga | "Em"bg (3gfg "C"ecAG |"D"FGAF "G"G3 :|
